X: 46
T: Miss Lyall
T: Strathspey, A Dorian
L: 1/16
M: 2/2
K: A Dorian
(3A2c2B2| A1A,3 A,3B,1 C3D1 E3^F1| G1G3 B3A1 G4 (3A2c2B2| A1A,3 A,3B,1 C3D1 E1G3| c3A1 B3^G1 A4(3A2c2B2| 
A1A,3 A,3B,1 C3D1 E3^F1| G1G3 B3A1 G4 (3B2c2d2| e3c1 d3B1 c3A1 B3G1| E1A3 ^G3B1 A4A2B2| 
A1a3 a3b1 g3a1 b1a1g1^f1| e1a3 a3b1 g4^f3g1| e1a3 a3b1 g3a1 b1a1g1^f1| e3c1 d3B1 A4A2B2| 
A1a3 a3b1 g3a1 b1a1g1^f1| e1a3 a3b1 g4^f3g1| (3a2g2^f2 (3g2a2b2 (3e2d2c2 (3B2c2d2| e3c1 d1B3 A4||
